Yaru++/devices/16/media-removable.svg

<svg xmlns="http://www.w3.org/2000/svg" width="16" height="16">
 <g fill="#808080" color="#000" font-family="sans-serif" font-weight="400">
  <path d="M5 4c-.658 0-1.178.06-1.617.225a1.88 1.88 0 0 0-.998.838c-.416.752-.37 1.673-.385 2.931V12.006c.015 1.258-.03 2.179.385 2.932.207.376.56.673.998.838.438.164.96.224 1.617.224h5c.658 0 1.179-.06 1.617-.225.439-.164.789-.461.996-.837.416-.753.372-1.674.387-2.932V7.994c-.014-1.258.03-2.179-.385-2.932a1.88 1.88 0 0 0-.998-.838C11.18 4.06 10.657 4 10 4zm0 1h5c.592 0 1.006.063 1.266.16.26.098.371.204.472.387.202.366.247 1.195.262 2.453v3.994c-.015 1.264-.06 2.092-.262 2.46-.1.183-.212.288-.472.386-.26.097-.674.16-1.266.16H5c-.592 0-1.006-.063-1.266-.16-.26-.098-.371-.203-.472-.387C3.06 14.087 3.015 13.26 3 12V8c.015-1.258.06-2.087.262-2.453.1-.183.213-.29.472-.387C3.994 5.063 4.408 5 5 5z" overflow="visible"/>
  <path fill-rule="evenodd" d="M4 0v3h1V1h5v2h1V0zm2 2v1h1V2zm2 0v1h1V2z" overflow="visible"/>
 </g>
</svg>

<?xml version="1.0" encoding="UTF-8" standalone="no"?>
<svg
   xmlns:dc="http://purl.org/dc/elements/1.1/"
   xmlns:cc="http://creativecommons.org/ns#"
   xmlns:rdf="http://www.w3.org/1999/02/22-rdf-syntax-ns#"
   xmlns:svg="http://www.w3.org/2000/svg"
   xmlns="http://www.w3.org/2000/svg"
   xmlns:sodipodi="http://sodipodi.sourceforge.net/DTD/sodipodi-0.dtd"
   xmlns:inkscape="http://www.inkscape.org/namespaces/inkscape"
   width="16"
   height="16"
   version="1.1"
   id="svg8"
   sodipodi:docname="media-removable.svg"
   inkscape:version="0.92.4 (5da689c313, 2019-01-14)">
  <metadata
     id="metadata14">
    <rdf:RDF>
      <cc:Work
         rdf:about="">
        <dc:format>image/svg+xml</dc:format>
        <dc:type
           rdf:resource="http://purl.org/dc/dcmitype/StillImage" />
      </cc:Work>
    </rdf:RDF>
  </metadata>
  <defs
     id="defs12" />
  <sodipodi:namedview
     pagecolor="#ffffff"
     bordercolor="#666666"
     borderopacity="1"
     objecttolerance="10"
     gridtolerance="10"
     guidetolerance="10"
     inkscape:pageopacity="0"
     inkscape:pageshadow="2"
     inkscape:window-width="854"
     inkscape:window-height="480"
     id="namedview10"
     showgrid="false"
     inkscape:zoom="14.75"
     inkscape:cx="8"
     inkscape:cy="8"
     inkscape:window-x="0"
     inkscape:window-y="27"
     inkscape:window-maximized="0"
     inkscape:current-layer="svg8" />
  <g
     font-weight="400"
     id="g6"
     transform="rotate(-180,7.5,8)"
     style="color:#000000;font-weight:400;font-family:sans-serif;fill:#808080">
    <path
       d="M 5,4 C 4.342,4 3.822,4.06 3.383,4.225 A 1.88,1.88 0 0 0 2.385,5.063 C 1.969,5.815 2.015,6.736 2,7.994 v 4.012 c 0.015,1.258 -0.03,2.179 0.385,2.932 0.207,0.376 0.56,0.673 0.998,0.838 C 3.821,15.94 4.343,16 5,16 h 5 c 0.658,0 1.179,-0.06 1.617,-0.225 0.439,-0.164 0.789,-0.461 0.996,-0.837 0.416,-0.753 0.372,-1.674 0.387,-2.932 V 7.994 C 12.986,6.736 13.03,5.815 12.615,5.062 A 1.88,1.88 0 0 0 11.617,4.224 C 11.18,4.06 10.657,4 10,4 Z m 0,1 h 5 c 0.592,0 1.006,0.063 1.266,0.16 0.26,0.098 0.371,0.204 0.472,0.387 C 11.94,5.913 11.985,6.742 12,8 v 3.994 c -0.015,1.264 -0.06,2.092 -0.262,2.46 -0.1,0.183 -0.212,0.288 -0.472,0.386 C 11.006,14.937 10.592,15 10,15 H 5 C 4.408,15 3.994,14.937 3.734,14.84 3.474,14.742 3.363,14.637 3.262,14.453 3.06,14.087 3.015,13.26 3,12 V 8 C 3.015,6.742 3.06,5.913 3.262,5.547 3.362,5.364 3.475,5.257 3.734,5.16 3.994,5.063 4.408,5 5,5 Z"
       overflow="visible"
       id="path2"
       inkscape:connector-curvature="0"
       style="overflow:visible" />
    <path
       d="M 4,0 V 3 H 5 V 1 h 5 v 2 h 1 V 0 Z M 6,2 V 3 H 7 V 2 Z M 8,2 V 3 H 9 V 2 Z"
       overflow="visible"
       id="path4"
       inkscape:connector-curvature="0"
       style="overflow:visible;fill-rule:evenodd" />
  </g>
</svg>
